X: 3189
T: MISS GIBSON
Q: "Strathspey."
R: Strathspey.
%R: strathspey
B: James Kerr "Merry Melodies" v.3 p.22 #189
Z: 2016 John Chambers <jc:trillian.mit.edu>
M: C
L: 1/16
K: Gm
uD2 |\
vG3vAuB3uc AF3 F3A | G3AB3c (d3g)g4 |\
f3dc3B ABcB AF3 | GABc d3D G6 :|
|: A2 |\
Gg3 g3a f3gfc3 | dg3 g3d gaba g2d2 |\
dg3 g3a f3gfc3 |[1 d3g bag^f g6 :|\
[2 fa3 df3 cf3 AF3 |]

%%sep 1 1 500
%%sep 1 1 500

